X: 0
T: The Stage
C: James Hill
R: hornpipe
M: 4/4
L: 1/8
K: Gmaj
Z: Matt Lenahan '25
|:"G"BGFG (3EFG DB,|G,B,DG cBcB|"C"AEAB cBcB|(3ABA (3GFE (3DED (3CB,A,|
"G"G,B,DG cBcd|edef ga (3gfe|"C"d<b c<a B<g f<g|1 ecAF "G"G3A:|2 ecAF G2 "G"(3def||
|:"G"ga (3gfe dbbd|"C"caac "G"Bgg2|BGAB cA ag|"D"fgef defd|
"G"ga (3gfe dbbd|"C"caac "G"Bgg2|(3gag (3fgf egfg|1 "C"ec"D"AF "G"G2 (3def:|2 "C"ec"D"AF "G"G4||